X:1
T:When Did We Have Sauerkraut?
M:4/4
L:1/4
K:G
 D B G D| C D E G| F G F G| F E D D| D B G D| C D E G| F D E F| G2 z2|\
 c A F A| c c c c| B G E _E| D G B B| A B A B| A B A G| F E F G| A2 z2|\
 c E F c| B D E B| A B A B| G A G B| c E F c| B D E B| A B A B| A2 z D|\
 D B G D| C D E G| F G F G| F E D D| D B G D| C D E G| F D E F| G2 z2|\
